!!!COM:	Praetorius, Michael
!!!OTL:	Jesu Kreuz
**kern	**kern	**kern	**kern
*ICvox	*ICvox	*ICvox	*ICvox
*I"Bassus	*I"Tenor	*I"Altus	*I"Diskantus
*clefF4	*clefGv2	*clefG2	*clefG2
*k[]	*k[]	*k[]	*k[]
*M4/4	*M4/4	*M4/4	*M4/4
*met(c)	*met(c)	*met(c)	*met(c)
4d	4f	4a	4dd
4d	4f	4a	4dd
4A	4e	4a	4cc
4A	4e	4a	4cc
4d	4f	4a	4dd
4d	4f	4b	4dd
2c	2g	2cc	2ee
=	=	=	=
4A	4c	4cc	4ee
4F	4f	4cc	4aa
4C	4e	4cc	4gg
4D	4d	4a	4ff
2A	2c#	2a	2ee
2D	2d	2a	2dd
=	=	=	=
4A	4e	4a	4cc
4c	4e	4g	4cc
4F	4f	4a	4dd
4G	4d	4b	4dd
4C	4cn	4g	4ee
4C	4c	4g	4ee
2C	2c	2g	2ee
=	=	=	=
4C	4g	4cc	4ee
4D	4f	4b	4dd
4E	4e	4a	4cc
4E	4e	4g#	4b
2A	2c#	2a	2a
2A	2c#	2e	2a
=	=	=	=
4c	4e	4cc	4ee
4c	4g	4cc	4ee
4F	4f	4cc	4aa
4F	4f	4cc	4aa
4C	4e	4cc	4gg
4D	4d	4a	4ff
2A	2c#	2a	2ee
=	=	=	=
4d	4f	4a	4dd
4A	4e	4a	4cc
4G	4g	4b	4dd
4c	4a	4dd	4ff
2A	2a	2cc#	2ee
2D	2f	2dd	2dd
=	=	=	=
4F	4f	4ccn	4a
4F	4c	4cc	4a
4C	4g	4cc	4ee
4D	4f	4a	4dd
4E	4e	4a	4cc
4E	4e	4g	4b
2F	2c	2f	2a
=	=	=	=
4G	4B	4d	4dd
4E	4G	4e	4cc
4D	4A	4f	4dd
4G	4B	4g	4dd
2F	2c	2cc	2aa
4c	4e	4cc	4gg
4d	4d	4a	4ff
1A	1c#	1a	1ee
00D	1d	00f	00dd
.	0.A	.	.
==	==	==	==
*-	*-	*-	*-
